X: 9
T:Caerdroea
% Nottingham Music Database
P:AAB
S:JP/AF 85
M:3/4
L:1/4
K:D
P:A
d|"D"AA/2B/2A/2G/2|"D"FAD|"Em"GG/2A/2G/2F/2|"A7"E2d|"D"AA/2B/2A/2G/2|"D"FAD|\
"G"GF"A7"E|"D"D2:|
P:B
D|"Bm"F3/2E/2F/2G/2|"F#m"A3/2A/2A|"Bm"F3/2E/2F/2G/2|"F#m"A2A|"Bm"d3/2c/2d/2e/2\
|"A"c3/2B/2A|"D"dd/2f/2"A"e/2g/2|
"D"f2"A/c+"e|"Bm"d3/2c/2B/2d/2|"F#m"c3/2B/2A|"Bm"dF"E7"^G|"A7"A2d|\
"D"AA/2B/2A/2G/2|"D"FAD|"G"GF"A7"E|"D"D2||<end>
<start>
